svgs/bromite.svg

<svg width="192" height="192" viewBox="0 0 192 192" fill="none" xmlns="http://www.w3.org/2000/svg">
<g clip-path="url(#clip0_40_29)">
<path d="M65.5 161.828C95.1541 178.948 133.073 168.788 150.194 139.134C167.314 109.48 157.154 71.5613 127.5 54.4404C97.8458 37.3196 59.9272 47.4799 42.8064 77.134C25.6856 106.788 35.8458 144.707 65.5 161.828Z" stroke="black" stroke-width="12" stroke-linecap="round" stroke-linejoin="round"/>
<path d="M107.447 45.1724C105.791 48.0422 106.774 51.7117 109.644 53.3686C112.513 55.0254 116.183 54.0422 117.84 51.1724L107.447 45.1724ZM135.16 61.1724C133.503 64.0422 134.487 67.7117 137.356 69.3686C140.226 71.0254 143.896 70.0422 145.553 67.1724L135.16 61.1724ZM159.017 51.8519C161.886 53.5088 165.556 52.5255 167.213 49.6558C168.87 46.786 167.886 43.1165 165.017 41.4596L159.017 51.8519ZM119.983 15.4596C117.114 13.8028 113.444 14.786 111.787 17.6558C110.13 20.5255 111.114 24.1951 113.983 25.8519L119.983 15.4596ZM117.84 51.1724L130.84 28.6558L120.447 22.6558L107.447 45.1724L117.84 51.1724ZM122.644 30.8519L150.356 46.8519L156.356 36.4596L128.644 20.4596L122.644 30.8519ZM148.16 38.6558L135.16 61.1724L145.553 67.1724L158.553 44.6558L148.16 38.6558ZM165.017 41.4596L156.356 36.4596L150.356 46.8519L159.017 51.8519L165.017 41.4596ZM128.644 20.4596L119.983 15.4596L113.983 25.8519L122.644 30.8519L128.644 20.4596Z" fill="black"/>
<path fill-rule="evenodd" clip-rule="evenodd" d="M82.608 116H99V119.089C101.899 117.055 104.889 115.018 108.072 113.014C124.071 102.938 140.306 96.86 157.317 105.366L162.683 94.6324C139.694 83.1379 118.429 92.3099 101.678 102.859C96.5185 106.108 91.3232 109.807 86.5992 113.169L86.599 113.17C85.2246 114.148 83.8901 115.098 82.608 116Z" fill="black"/>
<path d="M34.0031 106.342C30.8783 107.445 29.2392 110.872 30.3421 113.997C31.4449 117.122 34.8721 118.761 37.9969 117.658L34.0031 106.342ZM37.9969 117.658C54.3393 111.89 64.9565 111.408 72.7061 112.947C80.5261 114.501 86.1047 118.199 92.7165 122.522C99.2213 126.775 106.705 131.606 117.271 133.126C127.827 134.645 140.705 132.786 158.285 125.548L153.715 114.452C137.295 121.213 126.673 122.355 118.979 121.248C111.295 120.143 105.779 116.725 99.2835 112.478C92.8953 108.301 85.4739 103.249 75.0439 101.177C64.5435 99.0916 51.6607 100.11 34.0031 106.342L37.9969 117.658Z" fill="black"/>
</g>
<defs>
<clipPath id="clip0_40_29">
<rect width="192" height="192" fill="white"/>
</clipPath>
</defs>
</svg>

<svg width="192" height="192" fill="none" xmlns="http://www.w3.org/2000/svg"><g clip-path="url(#a)"><path d="M65.5 161.828c29.654 17.12 67.573 6.96 84.694-22.694 17.12-29.654 6.96-67.573-22.694-84.694-29.654-17.12-67.573-6.96-84.694 22.694-17.12 29.654-6.96 67.573 22.694 84.694z" stroke="#000" stroke-width="12" stroke-linecap="round" stroke-linejoin="round"/><path d="M107.447 45.172a6 6 0 0 0 10.393 6l-10.393-6zm27.713 16a6 6 0 0 0 10.393 6l-10.393-6zm23.857-9.32a6 6 0 0 0 6-10.392l-6 10.392zM119.983 15.46a6 6 0 0 0-6 10.392l6-10.392zm-2.143 35.712 13-22.516-10.393-6-13 22.516 10.393 6zm4.804-20.32 27.712 16 6-10.392-27.712-16-6 10.392zm25.516 7.804-13 22.516 10.393 6 13-22.516-10.393-6zm16.857 2.804-8.661-5-6 10.392 8.661 5 6-10.392zm-36.373-21-8.661-5-6 10.392 8.661 5 6-10.392z" fill="#000"/><path fill-rule="evenodd" clip-rule="evenodd" d="M82.608 116H99v3.089c2.899-2.034 5.889-4.071 9.072-6.075 15.999-10.076 32.234-16.154 49.245-7.648l5.366-10.734c-22.989-11.494-44.254-2.322-61.005 8.227-5.16 3.249-10.355 6.948-15.079 10.31v.001c-1.374.978-2.709 1.928-3.991 2.83z" fill="#000"/><path d="M34.003 106.342a6 6 0 0 0 3.994 11.316l-3.994-11.316zm3.994 11.316c16.342-5.768 26.96-6.25 34.71-4.711 7.82 1.554 13.398 5.252 20.01 9.575 6.504 4.253 13.988 9.084 24.554 10.604 10.556 1.519 23.434-.34 41.014-7.578l-4.57-11.096c-16.42 6.761-27.042 7.903-34.736 6.796-7.684-1.105-13.2-4.523-19.695-8.77-6.389-4.177-13.81-9.229-24.24-11.301-10.5-2.085-23.383-1.067-41.04 5.165l3.993 11.316z" fill="#000"/></g><defs><clipPath id="a"><path fill="#fff" d="M0 0h192v192H0z"/></clipPath></defs></svg>
